T: Noble Squire Dacre
M: 3/4
L: 1/8
K: Gmaj
|: B2~BA G2|G2 D2 G2|G2~GA B2|A2~A2 G2|
c2~cB A2|AE~E2 A2|c2~c2 e2|e2~ef G2|
B2~BA G2|G2 D2 G2|G2~GA B2|A2~A2 G2|
c2 e2 c2|d2~de f2|g2 d2 B2|A2~A2 G2:|A2~AG A2||
